X: 051820
T: East Clare Lassies
S: B.Breathnach:"Ceol Rince na hEireann" IV/209 (gan ainm) 
Z: B.Black
L: 1/8
M: 4/4
R: reel
K: Ador
d|eAGA eAGA|eAGA A2 Bc|dcBA GABc|dcBA G4|
A3B ABcd|efge d2 ed|cA (3AcA BAGB|A2 A>B A3 :|
e|eaab c/bag|eaaf g2 ag|eaag efge|dBGB d4|
A2 AG ABcd|efge d2 ed|cA (3AcA BAGB|A2 AB A3 :|
